X:1003
T:Mullindough, or the Black Laddie.
N:bar 4 printed as if |dGgG e2eg| and |dGgG A2A2| are alternates
M:C|
L:1/8
V:1
V:2 merge
Q:1/2=100
I: || ||
Z:Jack Campin * www.campin.me.uk * 2009
K:A Dorian
[V:1] g|Ted`ef  g2 (f>e)|dG (e/d/c/B/) dGGg  |{f}edef   g2 f>e|dGgG   e2eg|
[V:2] x| x8             |x8                  |   x8           |x4     A2A2|
[V:1]   Te>def Tg2  f>e |d>gB>g        d>gB>g|  Te>def  g<be<g|d<Bg>B A2A||
[V:2]    x8             |x8                  |   x8           |x4     x3 ||
[V:1] g|Te>Ae>d eAAB    |dG (e/d/c/B/) dGGg  |   e>Ae>d eAAB  |d>Bg>B A2Ag|
[V:2] x| x8             |x8                  |   x8           |x8         |
[V:1]    e>Ae>d eAAB    |dGdB          dGGg  |   e>Ae>f g<be>g|d<gB>g A2A|]
[V:2]    x8             |x8                  |   x8           |x4     x3 |]

